X: 10793
M: 2/4
L: 1/8
K: C
[|\
ccee | ddc2 | ef"^^"g2 | ef"^^"g2 |\
ccee | ddc2 | Bcde | d2z2 |\
ccee | ddc2 | ef"^^"g2 | ef"^^"g2 |
ccee | ddc2 | dcBA | G2zg |\
fffg | eee2 | fffg | e2g2 |\
ff(f2{g}) | ee(e2{g}) | fffg | e2g2 |
z2ze | fefe | fefe | fefg |\
e2c2 | ef"^^"g2 | efgf/e/ | dcde |\
c2z2 |]


